assets/Frog/Flat/frog_flat.svg

<svg width="32" height="32" viewBox="0 0 32 32" fill="none" xmlns="http://www.w3.org/2000/svg">
<path d="M28 8.44127C28.01 9.30127 27.82 10.1113 27.48 10.8413C27.33 11.1713 27.38 11.5513 27.61 11.8313C29.1 13.6513 30 15.9713 30 18.5013C30 19.2031 29.9312 19.8887 29.7999 20.5519C29.8103 20.4984 29.3839 20.6055 29.3936 20.5519L27.57 21.8068L15.8216 25.7988L4.40001 21.8068L2.41797 20.5742C2.42529 20.6145 2.18475 20.472 2.19227 20.5122C2.06609 19.8614 2 19.1891 2 18.5013C2 15.9713 2.9 13.6513 4.39 11.8313C4.62 11.5513 4.67 11.1613 4.52 10.8313C4.18 10.1113 3.99 9.29127 4 8.43127C4.04 5.48127 6.43 3.07127 9.38 3.00127C12.21 2.94127 14.57 5.02127 14.94 7.73127C14.96 7.88127 15.09 8.00127 15.25 8.00127H16.74C16.9 8.00127 17.03 7.88127 17.05 7.73127C17.43 5.01127 19.79 2.94127 22.62 3.00127C25.57 3.07127 27.96 5.48127 28 8.44127Z" fill="#00D26A"/>
<path d="M13 8.5C13 10.433 11.433 12 9.5 12C7.567 12 6 10.433 6 8.5C6 6.567 7.567 5 9.5 5C11.433 5 13 6.567 13 8.5Z" fill="#FFF478"/>
<path d="M26 8.5C26 10.433 24.433 12 22.5 12C20.567 12 19 10.433 19 8.5C19 6.567 20.567 5 22.5 5C24.433 5 26 6.567 26 8.5Z" fill="#FFF478"/>
<path d="M12 8.5C12 9.88071 10.8807 11 9.5 11C8.11929 11 7 9.88071 7 8.5C7 7.11929 8.11929 6 9.5 6C10.8807 6 12 7.11929 12 8.5Z" fill="#1C1C1C"/>
<path d="M25 8.50122C25 9.88193 23.8807 11.0012 22.5 11.0012C21.1193 11.0012 20 9.88193 20 8.50122C20 7.12051 21.1193 6.00122 22.5 6.00122C23.8807 6.00122 25 7.12051 25 8.50122Z" fill="#1C1C1C"/>
<path d="M17.5 14.0012C17.7761 14.0012 18 13.7774 18 13.5012C18 13.2251 17.7761 13.0012 17.5 13.0012C17.2239 13.0012 17 13.2251 17 13.5012C17 13.7774 17.2239 14.0012 17.5 14.0012Z" fill="#1C1C1C"/>
<path d="M15 13.5012C15 13.7774 14.7761 14.0012 14.5 14.0012C14.2239 14.0012 14 13.7774 14 13.5012C14 13.2251 14.2239 13.0012 14.5 13.0012C14.7761 13.0012 15 13.2251 15 13.5012Z" fill="#1C1C1C"/>
<path d="M27.57 20.3913C26.39 20.3913 25.3 19.9913 24.42 19.3313C22.11 17.4813 19.18 16.3813 15.99 16.3813C12.77 16.3813 9.82001 17.5013 7.50001 19.3813V19.3713C6.64001 20.0113 5.56001 20.3913 4.40001 20.3913H2.17001C3.06001 25.2913 7.35001 29.0013 12.5 29.0013H19.5C24.65 29.0013 28.94 25.2913 29.83 20.3913H27.57Z" fill="#FCD53F"/>
</svg>

<svg xmlns="http://www.w3.org/2000/svg" width="32" height="32" fill="none"><path fill="#00D26A" d="M28 8.441c.01.86-.18 1.67-.52 2.4-.15.33-.1.71.13.99 1.49 1.82 2.39 4.14 2.39 6.67 0 .702-.069 1.388-.2 2.05.01-.053-.416.055-.406 0l-1.824 1.256-11.748 3.992L4.4 21.807l-1.982-1.233c.007.04-.233-.102-.226-.062A10.557 10.557 0 0 1 2 18.502c0-2.53.9-4.85 2.39-6.67.23-.28.28-.67.13-1-.34-.72-.53-1.54-.52-2.4.04-2.95 2.43-5.36 5.38-5.43a5.49 5.49 0 0 1 5.56 4.73c.02.15.15.27.31.27h1.49c.16 0 .29-.12.31-.27a5.499 5.499 0 0 1 5.57-4.73c2.95.07 5.34 2.48 5.38 5.44Z"/><path fill="#FFF478" d="M13 8.5a3.5 3.5 0 1 1-7 0 3.5 3.5 0 0 1 7 0ZM26 8.5a3.5 3.5 0 1 1-7 0 3.5 3.5 0 0 1 7 0Z"/><path fill="#1C1C1C" d="M12 8.5a2.5 2.5 0 1 1-5 0 2.5 2.5 0 0 1 5 0ZM25 8.501a2.5 2.5 0 1 1-5 0 2.5 2.5 0 0 1 5 0ZM17.5 14.001a.5.5 0 1 0 0-1 .5.5 0 0 0 0 1ZM15 13.501a.5.5 0 1 1-1 0 .5.5 0 0 1 1 0Z"/><path fill="#FCD53F" d="M27.57 20.391c-1.18 0-2.27-.4-3.15-1.06a13.432 13.432 0 0 0-8.43-2.95c-3.22 0-6.17 1.12-8.49 3v-.01a5.19 5.19 0 0 1-3.1 1.02H2.17c.89 4.9 5.18 8.61 10.33 8.61h7c5.15 0 9.44-3.71 10.33-8.61h-2.26Z"/></svg>
